Obsidian/actions/24s/kstars_horizon.svg

<svg height="24" viewBox="0 0 24 24" width="24" xmlns="http://www.w3.org/2000/svg"><g fill="#bebebe" transform="translate(4 4)"><path d="m8 0a8 8 0 0 0 -8 8 8 8 0 0 0 8 8 8 8 0 0 0 8-8 8 8 0 0 0 -8-8zm0 1a7 7 0 0 1 7 7 7 7 0 0 1 -7 7 7 7 0 0 1 -7-7 7 7 0 0 1 7-7z"/><path d="m.03515625 7.2636719c-.0022.02338-.00190625.0469125-.00390625.0703125a8 8 0 0 1 .0078125-.0585938c-.0009666-.0039-.00297625-.0077987-.00390625-.0117187zm.98046875 1.1796875a7 7 0 0 0 6.984375 6.5566406 7 7 0 0 0 6.976562-6.546875c-1.373999.925-3.989562 1.546875-6.976562 1.546875-2.997-.001-5.616175-.6266406-6.984375-1.5566406zm14.949219.2441406a8 8 0 0 1 -.054688.453125c.02153-.1504.041638-.300155.054688-.453125zm-15.92382837.1308594a8 8 0 0 0 .18554687 1.0332031c-.08046963-.3380086-.14966114-.6798423-.18554687-1.0332031zm.18554687 1.0332031c.02233741.0938272.04469773.1867845.0703125.2792965a8 8 0 0 1 -.0703125-.2792965zm.0703125.2792965a8 8 0 0 0 .33203125.982422c-.13372978-.316156-.23923292-.647265-.33203125-.982422zm15.564453-.6796871a8 8 0 0 1 -.105469.4824219c.03963-.15932.075549-.3194819.105469-.4824219zm-.183594.7832031a8 8 0 0 1 -.152343.458984c.05427-.15155.107113-.303364.152343-.458984zm-.259765.75a8 8 0 0 1 -.208985.466797c.07373-.15366.144975-.307877.208985-.466797zm-14.78710962.130859c.10393.24548.21869312.484567.34570312.716797a8 8 0 0 1 -.34570312-.716797zm14.46289062.574219a8 8 0 0 1 -.240234.421875c.0833-.13853.165254-.278045.240234-.421875zm-14.0136719.310547c.095218.16432.190565.329678.296875.486328a8 8 0 0 1 -.296875-.486328zm13.5976559.398438a8 8 0 0 1 -.232422.326171c.07915-.10778.158642-.214372.232422-.326171zm-13.0624996.40625a8 8 0 0 0 .2382812.310546c-.08338-.10008-.1578341-.206417-.2363281-.310546zm12.6015626.226562a8 8 0 0 1 -.269531.304688c.09059-.100881.184101-.199278.269531-.304688zm-12.0957032.380859c.085777.09312.1697056.188394.2597656.277344a8 8 0 0 1 -.2597656-.277344zm11.5683592.207032a8 8 0 0 1 -.277344.259765c.09312-.08578.188394-.169715.277344-.259765zm-11.0253905.328125c.10088.09059.1992775.184101.3046875.269531a8 8 0 0 1 -.3046875-.269531zm10.4511715.201172a8 8 0 0 1 -.310546.236328c.104129-.0785.210466-.152949.310546-.236328zm-9.8398434.296874c.10778.07915.2143719.158642.3261719.232422a8 8 0 0 1 -.3261719-.232422zm9.2109374.177735a8 8 0 0 1 -.486328.296875c.16432-.09522.329678-.190565.486328-.296875zm-8.5976561.230469c.13853.0833.278045.165254.421875.240234a8 8 0 0 1 -.421875-.240234zm.6601562.355468c.15366.07373.3078769.144975.4667969.208985a8 8 0 0 1 -.4667969-.208985zm6.5644529.16211c-.314767.133142-.642954.237502-.976562.330078a8 8 0 0 0 .976562-.330078zm-.976562.330078a8 8 0 0 1 -.2851565.074219c.0959809-.022825.1905515-.047966.2851565-.074219zm-.2851565.074219c-.3373889.080231-.6805237.147775-1.0332031.183593a8 8 0 0 0 1.0332031-.183593zm-4.5449219-.25c.15155.05427.3033644.107113.4589844.152343a8 8 0 0 1 -.4589844-.152343zm.7597656.230468v.001953a8 8 0 0 0 .4824219.103516c-.16294-.02992-.3231019-.065839-.4824219-.105469zm.7929688.154297c.1504.02153.300155.041638.453125.054688a8 8 0 0 1 -.453125-.054688z" opacity=".3"/></g></svg>

<svg xmlns="http://www.w3.org/2000/svg" width="24" height="24" viewBox="0 0 24 24">
 <defs>
  <style id="current-color-scheme" type="text/css">
   .ColorScheme-Text { color:#bebebe; } .ColorScheme-Highlight { color:#4285f4; }
  </style>
 </defs>
 <path style="fill:currentColor" class="ColorScheme-Text" d="M 8 0 A 8 8 0 0 0 0 8 A 8 8 0 0 0 8 16 A 8 8 0 0 0 16 8 A 8 8 0 0 0 8 0 z M 8 1 A 7 7 0 0 1 15 8 A 7 7 0 0 1 8 15 A 7 7 0 0 1 1 8 A 7 7 0 0 1 8 1 z" transform="translate(4 4)"/>
 <path style="fill:currentColor;opacity:0.3" class="ColorScheme-Text" d="M 0.03515625 7.2636719 C 0.03295625 7.2870519 0.03325 7.3105844 0.03125 7.3339844 A 8 8 0 0 1 0.0390625 7.2753906 C 0.0380959 7.2714906 0.03608625 7.2675919 0.03515625 7.2636719 z M 1.015625 8.4433594 A 7 7 0 0 0 8 15 A 7 7 0 0 0 14.976562 8.453125 C 13.602563 9.378125 10.987 10 8 10 C 5.003 9.999 2.383825 9.3733594 1.015625 8.4433594 z M 15.964844 8.6875 A 8 8 0 0 1 15.910156 9.140625 C 15.931686 8.990225 15.951794 8.84047 15.964844 8.6875 z M 0.041015625 8.8183594 A 8 8 0 0 0 0.2265625 9.8515625 C 0.14609287 9.5135539 0.076901364 9.1717202 0.041015625 8.8183594 z M 0.2265625 9.8515625 C 0.24889991 9.9453897 0.27126023 10.038347 0.296875 10.130859 A 8 8 0 0 1 0.2265625 9.8515625 z M 0.296875 10.130859 A 8 8 0 0 0 0.62890625 11.113281 C 0.49517647 10.797125 0.38967333 10.466016 0.296875 10.130859 z M 15.861328 9.4511719 A 8 8 0 0 1 15.755859 9.9335938 C 15.795489 9.7742738 15.831408 9.6141119 15.861328 9.4511719 z M 15.677734 10.234375 A 8 8 0 0 1 15.525391 10.693359 C 15.579661 10.541809 15.632504 10.389995 15.677734 10.234375 z M 15.417969 10.984375 A 8 8 0 0 1 15.208984 11.451172 C 15.282714 11.297512 15.353959 11.143295 15.417969 10.984375 z M 0.63085938 11.115234 C 0.73478938 11.360714 0.8495525 11.599801 0.9765625 11.832031 A 8 8 0 0 1 0.63085938 11.115234 z M 15.09375 11.689453 A 8 8 0 0 1 14.853516 12.111328 C 14.936816 11.972798 15.01877 11.833283 15.09375 11.689453 z M 1.0800781 12 C 1.1752961 12.16432 1.2706431 12.329678 1.3769531 12.486328 A 8 8 0 0 1 1.0800781 12 z M 14.677734 12.398438 A 8 8 0 0 1 14.445312 12.724609 C 14.524462 12.616829 14.603954 12.510237 14.677734 12.398438 z M 1.6152344 12.804688 A 8 8 0 0 0 1.8535156 13.115234 C 1.7701356 13.015154 1.6956815 12.908817 1.6171875 12.804688 L 1.6152344 12.804688 z M 14.216797 13.03125 A 8 8 0 0 1 13.947266 13.335938 C 14.037856 13.235057 14.131367 13.13666 14.216797 13.03125 z M 2.1210938 13.412109 C 2.2068708 13.505229 2.2907994 13.600503 2.3808594 13.689453 A 8 8 0 0 1 2.1210938 13.412109 z M 13.689453 13.619141 A 8 8 0 0 1 13.412109 13.878906 C 13.505229 13.793126 13.600503 13.709191 13.689453 13.619141 z M 2.6640625 13.947266 C 2.7649425 14.037856 2.86334 14.131367 2.96875 14.216797 A 8 8 0 0 1 2.6640625 13.947266 z M 13.115234 14.148438 A 8 8 0 0 1 12.804688 14.384766 C 12.908817 14.306266 13.015154 14.231817 13.115234 14.148438 z M 3.2753906 14.445312 C 3.3831706 14.524462 3.4897625 14.603954 3.6015625 14.677734 A 8 8 0 0 1 3.2753906 14.445312 z M 12.486328 14.623047 A 8 8 0 0 1 12 14.919922 C 12.16432 14.824702 12.329678 14.729357 12.486328 14.623047 z M 3.8886719 14.853516 C 4.0272019 14.936816 4.1667169 15.01877 4.3105469 15.09375 A 8 8 0 0 1 3.8886719 14.853516 z M 4.5488281 15.208984 C 4.7024881 15.282714 4.856705 15.353959 5.015625 15.417969 A 8 8 0 0 1 4.5488281 15.208984 z M 11.113281 15.371094 C 10.798514 15.504236 10.470327 15.608596 10.136719 15.701172 A 8 8 0 0 0 11.113281 15.371094 z M 10.136719 15.701172 A 8 8 0 0 1 9.8515625 15.775391 C 9.9475434 15.752566 10.042114 15.727425 10.136719 15.701172 z M 9.8515625 15.775391 C 9.5141736 15.855622 9.1710388 15.923166 8.8183594 15.958984 A 8 8 0 0 0 9.8515625 15.775391 z M 5.3066406 15.525391 C 5.4581906 15.579661 5.610005 15.632504 5.765625 15.677734 A 8 8 0 0 1 5.3066406 15.525391 z M 6.0664062 15.755859 L 6.0664062 15.757812 A 8 8 0 0 0 6.5488281 15.861328 C 6.3858881 15.831408 6.2257262 15.795489 6.0664062 15.755859 z M 6.859375 15.910156 C 7.009775 15.931686 7.15953 15.951794 7.3125 15.964844 A 8 8 0 0 1 6.859375 15.910156 z" transform="translate(4 4)"/>
</svg>
